packages/icons/svg/24/Rotate90DegreesC.svg

<svg width="24" height="24" viewBox="0 0 24 24" fill="none" xmlns="http://www.w3.org/2000/svg">
<path fill-rule="evenodd" clip-rule="evenodd" d="M21.415 11.49L17.765 7.83002C16.985 7.04002 15.725 7.04002 14.935 7.82002L11.265 11.5C10.485 12.28 10.485 13.55 11.265 14.33L14.925 17.98C15.705 18.76 16.975 18.76 17.755 17.98L21.415 14.32C22.195 13.54 22.195 12.27 21.415 11.49ZM17.0449 9.94002L19.2949 12.19C19.6849 12.58 19.6849 13.22 19.2949 13.61L17.0549 15.84C16.6549 16.23 16.0249 16.23 15.6349 15.84L13.3849 13.59C12.9949 13.2 12.9949 12.57 13.3849 12.18L15.6249 9.94002C16.0249 9.55002 16.6549 9.55002 17.0449 9.94002Z" fill="#858585"/>
<path fill-rule="evenodd" clip-rule="evenodd" d="M4.33495 6.64003C6.08495 4.88003 8.39495 4.00003 10.6949 4.00003V3.17003C10.6949 2.28003 11.7749 1.83003 12.4049 2.46003L14.2249 4.29003C14.6149 4.68003 14.6149 5.31003 14.2249 5.70003L12.3949 7.53003C11.7749 8.16003 10.6949 7.72003 10.6949 6.83003V6.00003C8.67495 6.00003 6.66495 6.86003 5.24495 8.61003C3.19495 11.13 3.19495 14.88 5.24495 17.4C6.66495 19.14 8.67495 20 10.6949 20C11.4749 20 12.2449 19.87 12.9849 19.61C13.3449 19.49 13.7349 19.6 14.0049 19.87C14.5049 20.37 14.3449 21.26 13.6649 21.49C12.7049 21.83 11.7049 22 10.6949 22C8.39495 22 6.08495 21.12 4.33495 19.36C0.814946 15.85 0.814946 10.15 4.33495 6.64003Z" fill="#858585"/>
</svg>

<svg width="24" height="24" fill="none" xmlns="http://www.w3.org/2000/svg" viewBox="0 0 24 24"><path fill-rule="evenodd" clip-rule="evenodd" d="M21.415 11.49l-3.65-3.66c-.78-.79-2.04-.79-2.83-.01l-3.67 3.68c-.78.78-.78 2.05 0 2.83l3.66 3.65c.78.78 2.05.78 2.83 0l3.66-3.66c.78-.78.78-2.05 0-2.83zm-4.37-1.55l2.25 2.25c.39.39.39 1.03 0 1.42l-2.24 2.23c-.4.39-1.03.39-1.42 0l-2.25-2.25a.996.996 0 010-1.41l2.24-2.24c.4-.39 1.03-.39 1.42 0z" fill="currentColor"></path><path fill-rule="evenodd" clip-rule="evenodd" d="M4.335 6.64A8.949 8.949 0 0110.695 4v-.83c0-.89 1.08-1.34 1.71-.71l1.82 1.83c.39.39.39 1.02 0 1.41l-1.83 1.83c-.62.63-1.7.19-1.7-.7V6c-2.02 0-4.03.86-5.45 2.61-2.05 2.52-2.05 6.27 0 8.79a6.985 6.985 0 007.74 2.21c.36-.12.75-.01 1.02.26.5.5.34 1.39-.34 1.62a8.949 8.949 0 01-9.33-2.13 8.98 8.98 0 010-12.72z" fill="currentColor"></path></svg>
